front-end/src/icons/svg/notebook-outline.svg

<svg style="width:24px;height:24px" viewBox="0 0 24 24"><path d="M17 4v6l-2-2-2 2V4H9v16h10V4h-2M3 7V5h2V4a2 2 0 0 1 2-2h12c1.05 0 2 .95 2 2v16c0 1.05-.95 2-2 2H7c-1.05 0-2-.95-2-2v-1H3v-2h2v-4H3v-2h2V7H3m2-2v2h2V5H5m0 14h2v-2H5v2m0-6h2v-2H5v2z"/></svg>

<svg style="width:24px;height:24px" viewBox="0 0 24 24">
    <path fill="currentColor" d="M17,4V10L15,8L13,10V4H9V20H19V4H17M3,7V5H5V4C5,2.89 5.9,2 7,2H19C20.05,2 21,2.95 21,4V20C21,21.05 20.05,22 19,22H7C5.95,22 5,21.05 5,20V19H3V17H5V13H3V11H5V7H3M5,5V7H7V5H5M5,19H7V17H5V19M5,13H7V11H5V13Z" />
</svg>
